!!!OTL: Der Schuler (4-19), S. 28
!!!id: P0580
**kern
*clefG2
*k[]
*G:
{8d
8g
8b
=1
8g
8g
16b
16b
4.dd
16cc
16dd
=2
4.a}
=3
{16b
16a
8.g
16g
16a
16b
16dd
16cc
8b
8a
=4
4.g}
=5
{8d
8g
8b
=6
8cc
8.dd
16cc
=7
8b
8a
4.g}
=8
{8a
8cc
16dd
16cc
=9
4dd
8ee
8ee
8dd
16cc
16dd
=10
4.a}
=11
{16b
16a
=12
8.g
16a
16b
16cc
8.dd
16cc
8b
8a
=13
4g}
==
*-
!!!minrhy: 16
!!!meters: FREI]  ZZ[5 interpreted as [0/4, 0/4]
!!!cut: Der Schuler (4-19), S. 28
!!!reg: Lothringen
!!!trd1: PINCK
!!!trd2: is: Verklingende Weisen Bd 4, Kassel 1939
!!!rhy1: X_X_X_  X_X_XXX__.XX  X__.
!!!rhy2: XXX_.XXXXXX_X_  X__.
!!!key: P0580  16  G FREI]  ZZ[5
!!!mod: SECHSTONSKALA DUR ?]  AMBITUS[9
!!!kad: 21121
!!!akz: -512_31_-543_252_311_
!!!fot: 'a__b__bw_c__bw_
!!!for: 'a__b__c__d__e__
!!!fok: '^a_Sd_^a_^__Sd_
!!!fkt: Schuld, Reue, geistliches, religiöses Lied
!! LOTH VKL
!! PR[12] 2K[9] 2G[17] 3K[2] 3G[0] 4A[11] 4Ü[0] 5A[0] 6K[0] 6G[0]
!! 7K[0] 7G[0] 8A[0] MEHR[0] SI[38] ABS[66] SR[26] SP[12]
!! ST[12] 2k[14] 2g[29] 3k[6] 3g[0] 4d[2] 4ü[0] 5d[0] 6k[0] 6g[0]
!! 7k[0] 7g[0] 8d[0] mehr[0] si[50] dm[-12] sr[42] sp[8]
!! 1F[15] 2F[64] 3F[18] 4F[0] LF[0] 2P[0] 3P[3] 4P[0] TRI[0] DF[4] AB[67]
!! TF[0] U3K[0] U3[0] U4[0] U4Ü[0] U5[0] U6K[0] U6[0] U7K[10] U7[0]
!! N1[21] N2K[6] N2[6] N3K[18] N3[1] N4[22] N4Ü[0] N5[7] N6K[4] N6[0]
!!!n7k: 3] N7[0] O1[0] O2K[0] O2[0] O3K[0] O3[0] HÖ[0
